src/epub/images/titlepage.svg

<?xml version="1.0" encoding="utf-8"?>
<svg xmlns="http://www.w3.org/2000/svg" xmlns:svg="http://www.w3.org/2000/svg" version="1.1" viewBox="0 0 1400 340">
	<title>The titlepage for the Standard Ebooks edition of Heart of Darkness, by Joseph Conrad</title>
	<g>
		<path d="m 161.54897,99.029239 24.88889,0 0,30.970761 17.59064,0 0,-77.192984 -17.59064,0 0,30.783626 -24.88889,0 0,-30.783626 -17.59065,0 0,77.192984 17.59065,0 0,-30.970761 z"/>
		<path d="m 264.394,52.807016 -44.16374,0 0,77.192984 44.16374,0 0,-15.4386 -26.5731,0 0,-15.532161 25.4503,0 0,-15.438597 -25.4503,0 0,-15.345029 26.5731,0 0,-15.438597 z"/>
		<path d="m 319.2595,52.807016 -16.2807,0 L 271.8209,130 l 18.90059,0 5.7076,-15.4386 29.38012,0 5.7076,15.4386 18.90059,0 -31.1579,-77.192984 z m 0.5614,46.31579 -17.40351,0 8.60819,-22.45614 0.18714,0 8.60818,22.45614 z"/>
		<path d="m 358.33699,52.807016 0,77.192984 17.59064,0 0,-30.502925 L 399.50658,130 l 22.36257,0 -26.5731,-31.906433 c 9.45029,-2.994152 15.81287,-10.760234 15.81287,-22.362574 0,-15.157895 -10.8538,-22.923977 -25.16959,-22.923977 l -27.60234,0 z m 17.59064,34.245615 0,-20.210527 2.05848,0 c 6.64327,0 14.59649,0.467836 14.59649,10.105263 0,9.637428 -7.95322,10.105264 -14.59649,10.105264 l -2.05848,0 z"/>
		<path d="m 421.88525,68.245613 18.33918,0 0,61.754387 17.59064,0 0,-61.754387 18.33918,0 0,-15.438597 -54.269,0 0,15.438597 z"/>
		<path d="m 514.61184,91.356724 c 0,22.549706 16.09357,40.046786 38.92398,40.046786 22.17544,0 38.83041,-17.49708 38.83041,-40.046786 0,-22.549708 -17.40351,-39.953217 -38.83041,-39.953217 -21.23976,0 -38.92398,17.403509 -38.92398,39.953217 z m 18.99416,0 c 0,-11.508772 6.36257,-23.017544 19.92982,-23.017544 13.66082,0 19.83626,11.508772 19.83626,23.017544 0,11.508776 -5.80117,23.017546 -19.83626,23.017546 -14.40935,0 -19.92982,-11.50877 -19.92982,-23.017546 z"/>
		<path d="m 649.75949,52.807016 -44.63158,0 0,77.192984 17.59064,0 0,-30.970761 24.98246,0 0,-15.438597 -24.98246,0 0,-15.345029 27.04094,0 0,-15.438597 z"/>
		<path d="m 693.70979,52.807016 0,77.192984 22.36257,0 c 21.23977,0 38.92398,-16.09357 38.92398,-38.643276 0,-22.45614 -17.77778,-38.549708 -38.92398,-38.549708 l -22.36257,0 z m 17.59064,61.473684 0,-45.754385 2.71345,0 c 13.09942,0 21.98831,10.011696 21.98831,22.923977 -0.0936,12.912278 -8.98246,22.830408 -21.98831,22.830408 l -2.71345,0 z"/>
		<path d="m 806.99345,52.807016 -16.2807,0 L 759.55485,130 l 18.90059,0 5.7076,-15.4386 29.38012,0 5.7076,15.4386 18.90058,0 -31.15789,-77.192984 z m 0.5614,46.31579 -17.40351,0 8.60819,-22.45614 0.18713,0 8.60819,22.45614 z"/>
		<path d="m 846.07093,52.807016 0,77.192984 17.59065,0 0,-30.502925 L 887.24053,130 909.6031,130 883.03,98.093567 c 9.45029,-2.994152 15.81286,-10.760234 15.81286,-22.362574 0,-15.157895 -10.8538,-22.923977 -25.16959,-22.923977 l -27.60234,0 z m 17.59065,34.245615 0,-20.210527 2.05848,0 c 6.64327,0 14.59649,0.467836 14.59649,10.105263 0,9.637428 -7.95322,10.105264 -14.59649,10.105264 l -2.05848,0 z"/>
		<path d="m 988.40861,130 -35.92983,-40.608188 31.06433,-36.584796 -21.33334,0 -26.47953,31.532164 0,-31.532164 -17.59064,0 0,77.192984 17.59064,0 0,-32.748539 L 964.17469,130 l 24.23392,0 z"/>
		<path d="m 1014.3779,82.093566 0.1872,0 30.69,47.906434 17.5907,0 0,-77.192984 -17.5907,0 0,47.906434 -0.1871,0 -30.6901,-47.906434 -17.5906,0 0,77.192984 17.5906,0 0,-47.906434 z"/>
		<path d="m 1123.2537,52.807016 -44.1638,0 0,77.192984 44.1638,0 0,-15.4386 -26.5731,0 0,-15.532161 25.4503,0 0,-15.438597 -25.4503,0 0,-15.345029 26.5731,0 0,-15.438597 z"/>
		<path d="m 1166.8107,51.403507 c -12.4445,0 -25.1696,9.169591 -25.1696,23.578948 0,8.046784 5.4269,15.251462 14.69,19.836258 9.1696,4.584795 17.4035,7.111107 17.4035,12.725147 0,7.20468 -7.2982,7.57895 -11.1345,7.57895 -8.6081,0 -18.9005,-8.70176 -18.9005,-8.70176 l -8.7954,14.78363 c 0,0 10.9474,10.19883 29.0059,10.19883 15.0643,0 29.0994,-6.45614 29.0994,-24.88889 0,-10.105264 -9.4503,-17.40351 -18.0585,-21.052632 -8.7953,-3.742691 -16.0935,-6.83041 -16.0935,-11.134504 0,-4.210526 3.1812,-6.923976 9.1695,-6.923976 7.9533,0 15.6258,5.333333 15.6258,5.333333 l 7.1111,-14.035088 c 0,0 -9.9181,-7.298246 -23.9532,-7.298246 z"/>
		<path d="m 1232.8487,51.403507 c -12.4445,0 -25.1696,9.169591 -25.1696,23.578948 0,8.046784 5.4269,15.251462 14.6901,19.836258 9.1696,4.584795 17.4035,7.111107 17.4035,12.725147 0,7.20468 -7.2983,7.57895 -11.1345,7.57895 -8.6082,0 -18.9006,-8.70176 -18.9006,-8.70176 l -8.7953,14.78363 c 0,0 10.9473,10.19883 29.0058,10.19883 15.0643,0 29.0994,-6.45614 29.0994,-24.88889 0,-10.105264 -9.4503,-17.40351 -18.0585,-21.052632 -8.7953,-3.742691 -16.0935,-6.83041 -16.0935,-11.134504 0,-4.210526 3.1813,-6.923976 9.1696,-6.923976 7.9532,0 15.6257,5.333333 15.6257,5.333333 l 7.1111,-14.035088 c 0,0 -9.9181,-7.298246 -23.9532,-7.298246 z"/>
	</g>
	<g>
		<path d="m 384.91612,232.10526 -13.19298,0 0,38.17544 c 0,5.82456 -2.87719,8.14035 -6.66667,8.14035 -3.36842,0 -7.50877,-3.92982 -7.50877,-3.92982 l -4.21053,11.01754 c 0,0 5.26316,5.54386 13.54386,5.54386 11.57895,0 18.03509,-6.03509 18.03509,-17.40351 l 0,-41.54386 z"/>
		<path d="m 395.02138,261.01754 c 0,16.91228 12.07018,30.03509 29.19299,30.03509 16.63158,0 29.1228,-13.12281 29.1228,-30.03509 0,-16.91228 -13.05263,-29.96491 -29.1228,-29.96491 -15.92983,0 -29.19299,13.05263 -29.19299,29.96491 z m 14.24562,0 c 0,-8.63157 4.77193,-17.26315 14.94737,-17.26315 10.24561,0 14.87719,8.63158 14.87719,17.26315 0,8.63158 -4.35088,17.26316 -14.87719,17.26316 -10.80702,0 -14.94737,-8.63158 -14.94737,-17.26316 z"/>
		<path d="m 485.49177,231.05263 c -9.33333,0 -18.87719,6.8772 -18.87719,17.68421 0,6.03509 4.07018,11.4386 11.01755,14.8772 6.87719,3.43859 13.05263,5.33333 13.05263,9.54385 0,5.40351 -5.47369,5.68422 -8.35088,5.68422 -6.45614,0 -14.17544,-6.52632 -14.17544,-6.52632 l -6.59649,11.08772 c 0,0 8.21053,7.64912 21.75439,7.64912 11.29824,0 21.82456,-4.8421 21.82456,-18.66666 0,-7.57895 -7.08772,-13.05264 -13.54386,-15.78948 -6.59649,-2.80702 -12.07018,-5.12281 -12.07018,-8.35088 0,-3.15789 2.38597,-5.19298 6.8772,-5.19298 5.96491,0 11.71929,4 11.71929,4 l 5.33334,-10.52631 c 0,0 -7.4386,-5.47369 -17.96492,-5.47369 z"/>
		<path d="m 549.43037,232.10526 -33.1228,0 0,57.89474 33.1228,0 0,-11.57895 -19.92982,0 0,-11.64912 19.08772,0 0,-11.57895 -19.08772,0 0,-11.50877 19.92982,0 0,-11.57895 z"/>
		<path d="m 562.01481,232.10526 0,57.89474 13.19298,0 0,-21.47368 7.92983,0 c 11.29824,0 19.78947,-6.66667 19.78947,-18.5965 0,-11.99999 -8.49123,-17.82456 -19.78947,-17.82456 l -21.12281,0 z M 575.20779,258 l 0,-15.36842 3.7193,0 c 5.19298,0 10.10526,1.75439 10.10526,7.7193 0,5.89473 -4.91228,7.64912 -10.10526,7.64912 l -3.7193,0 z"/>
		<path d="m 626.94572,266.77193 18.66667,0 0,23.22807 13.19298,0 0,-57.89474 -13.19298,0 0,23.08772 -18.66667,0 0,-23.08772 -13.19298,0 0,57.89474 13.19298,0 0,-23.22807 z"/>
		<path d="m 725.00931,278.07018 c -13.26316,0 -19.08772,-9.26316 -19.08772,-17.05264 0,-7.71929 5.82456,-16.98245 19.08772,-16.98245 6.73684,0 11.36842,3.57895 11.36842,3.57895 l 5.61404,-11.22807 c 0,0 -6.45614,-5.33334 -19.01755,-5.33334 -16.42105,0 -31.36842,13.47369 -31.36842,30.10527 0,16.5614 15.01755,29.89473 31.36842,29.89473 12.56141,0 19.01755,-5.33333 19.01755,-5.33333 l -5.61404,-11.22807 c 0,0 -4.63158,3.57895 -11.36842,3.57895 z"/>
		<path d="m 749.5115,261.01754 c 0,16.91228 12.07018,30.03509 29.19299,30.03509 16.63158,0 29.1228,-13.12281 29.1228,-30.03509 0,-16.91228 -13.05263,-29.96491 -29.1228,-29.96491 -15.92983,0 -29.19299,13.05263 -29.19299,29.96491 z m 14.24562,0 c 0,-8.63157 4.77193,-17.26315 14.94737,-17.26315 10.24561,0 14.87719,8.63158 14.87719,17.26315 0,8.63158 -4.35088,17.26316 -14.87719,17.26316 -10.80702,0 -14.94737,-8.63158 -14.94737,-17.26316 z"/>
		<path d="m 831.84157,254.07018 0.14035,0 23.01754,35.92982 13.19298,0 0,-57.89474 -13.19298,0 0,35.92983 -0.14035,0 -23.01754,-35.92983 -13.19299,0 0,57.89474 13.19299,0 0,-35.92982 z"/>
		<path d="m 881.62554,232.10526 0,57.89474 13.19299,0 0,-22.87719 17.68421,22.87719 16.77193,0 -19.92983,-23.92982 c 7.08772,-2.24562 11.85965,-8.07018 11.85965,-16.77193 0,-11.36842 -8.14035,-17.19299 -18.87719,-17.19299 l -20.70176,0 z m 13.19299,25.68421 0,-15.15789 1.54386,0 c 4.98245,0 10.94736,0.35088 10.94736,7.57895 0,7.22807 -5.96491,7.57894 -10.94736,7.57894 l -1.54386,0 z"/>
		<path d="m 966.33057,232.10526 -12.21053,0 L 930.75162,290 l 14.17544,0 4.2807,-11.57895 22.03509,0 4.2807,11.57895 14.17544,0 -23.36842,-57.89474 z m 0.42105,34.73685 -13.05263,0 6.45614,-16.84211 0.14035,0 6.45614,16.84211 z"/>
		<path d="m 996.88873,232.10526 0,57.89474 16.77197,0 c 15.9298,0 29.1929,-12.07018 29.1929,-28.98246 0,-16.8421 -13.3333,-28.91228 -29.1929,-28.91228 l -16.77197,0 z m 13.19297,46.10527 0,-34.31579 2.0351,0 c 9.8246,0 16.4912,7.50877 16.4912,17.19298 -0.07,9.68421 -6.7368,17.12281 -16.4912,17.12281 l -2.0351,0 z"/>
	</g>
</svg>

<?xml version="1.0" encoding="utf-8"?>
<svg xmlns="http://www.w3.org/2000/svg" xmlns:svg="http://www.w3.org/2000/svg" version="1.1" viewBox="0 0 1400 340">
	<title>The titlepage for the Standard Ebooks edition of Heart of Darkness, by Joseph Conrad</title>
	<g aria-label="HEART OF DARKNESS">
		<path d="m 161.54897,99.029239 h 24.88889 V 130 H 204.0285 V 52.807016 H 186.43786 V 83.590642 H 161.54897 V 52.807016 H 143.95832 V 130 h 17.59065 z"/>
		<path d="M 264.394,52.807016 H 220.23026 V 130 H 264.394 V 114.5614 H 237.8209 V 99.029239 h 25.4503 V 83.590642 H 237.8209 V 68.245613 h 26.5731 z"/>
		<path d="M 319.2595,52.807016 H 302.9788 L 271.8209,130 h 18.90059 l 5.7076,-15.4386 h 29.38012 L 331.51681,130 h 18.90059 z m 0.5614,46.31579 h -17.40351 l 8.60819,-22.45614 h 0.18714 z"/>
		<path d="M 358.33699,52.807016 V 130 h 17.59064 V 99.497075 L 399.50658,130 h 22.36257 l -26.5731,-31.906433 c 9.45029,-2.994152 15.81287,-10.760234 15.81287,-22.362574 0,-15.157895 -10.8538,-22.923977 -25.16959,-22.923977 z m 17.59064,34.245615 V 66.842104 h 2.05848 c 6.64327,0 14.59649,0.467836 14.59649,10.105263 0,9.637428 -7.95322,10.105264 -14.59649,10.105264 z"/>
		<path d="m 421.88525,68.245613 h 18.33918 V 130 h 17.59064 V 68.245613 h 18.33918 V 52.807016 h -54.269 z"/>
		<path d="m 514.61184,91.356724 c 0,22.549706 16.09357,40.046786 38.92398,40.046786 22.17544,0 38.83041,-17.49708 38.83041,-40.046786 0,-22.549708 -17.40351,-39.953217 -38.83041,-39.953217 -21.23976,0 -38.92398,17.403509 -38.92398,39.953217 z m 18.99416,0 c 0,-11.508772 6.36257,-23.017544 19.92982,-23.017544 13.66082,0 19.83626,11.508772 19.83626,23.017544 0,11.508776 -5.80117,23.017546 -19.83626,23.017546 -14.40935,0 -19.92982,-11.50877 -19.92982,-23.017546 z"/>
		<path d="M 649.75949,52.807016 H 605.12791 V 130 h 17.59064 V 99.029239 h 24.98246 V 83.590642 H 622.71855 V 68.245613 h 27.04094 z"/>
		<path d="M 693.70979,52.807016 V 130 h 22.36257 c 21.23977,0 38.92398,-16.09357 38.92398,-38.643276 0,-22.45614 -17.77778,-38.549708 -38.92398,-38.549708 z M 711.30043,114.2807 V 68.526315 h 2.71345 c 13.09942,0 21.98831,10.011696 21.98831,22.923977 -0.0936,12.912278 -8.98246,22.830408 -21.98831,22.830408 z"/>
		<path d="m 806.99345,52.807016 h -16.2807 L 759.55485,130 h 18.90059 l 5.7076,-15.4386 h 29.38012 L 819.25076,130 h 18.90058 z m 0.5614,46.31579 h -17.40351 l 8.60819,-22.45614 h 0.18713 z"/>
		<path d="M 846.07093,52.807016 V 130 h 17.59065 V 99.497075 L 887.24053,130 H 909.6031 L 883.03,98.093567 c 9.45029,-2.994152 15.81286,-10.760234 15.81286,-22.362574 0,-15.157895 -10.8538,-22.923977 -25.16959,-22.923977 z m 17.59065,34.245615 V 66.842104 h 2.05848 c 6.64327,0 14.59649,0.467836 14.59649,10.105263 0,9.637428 -7.95322,10.105264 -14.59649,10.105264 z"/>
		<path d="M 988.40861,130 952.47878,89.391812 983.54311,52.807016 H 962.20977 L 935.73024,84.33918 V 52.807016 H 918.1396 V 130 h 17.59064 V 97.251461 L 964.17469,130 Z"/>
		<path d="m 1014.3779,82.093566 h 0.1872 L 1045.2551,130 h 17.5907 V 52.807016 h -17.5907 v 47.906434 h -0.1871 L 1014.3779,52.807016 H 996.7873 V 130 h 17.5906 z"/>
		<path d="m 1123.2537,52.807016 h -44.1638 V 130 h 44.1638 v -15.4386 h -26.5731 V 99.029239 h 25.4503 V 83.590642 h -25.4503 V 68.245613 h 26.5731 z"/>
		<path d="m 1166.8107,51.403507 c -12.4445,0 -25.1696,9.169591 -25.1696,23.578948 0,8.046784 5.4269,15.251462 14.69,19.836258 9.1696,4.584795 17.4035,7.111107 17.4035,12.725147 0,7.20468 -7.2982,7.57895 -11.1345,7.57895 -8.6081,0 -18.9005,-8.70176 -18.9005,-8.70176 l -8.7954,14.78363 c 0,0 10.9474,10.19883 29.0059,10.19883 15.0643,0 29.0994,-6.45614 29.0994,-24.88889 0,-10.105264 -9.4503,-17.40351 -18.0585,-21.052632 -8.7953,-3.742691 -16.0935,-6.83041 -16.0935,-11.134504 0,-4.210526 3.1812,-6.923976 9.1695,-6.923976 7.9533,0 15.6258,5.333333 15.6258,5.333333 l 7.1111,-14.035088 c 0,0 -9.9181,-7.298246 -23.9532,-7.298246 z"/>
		<path d="m 1232.8487,51.403507 c -12.4445,0 -25.1696,9.169591 -25.1696,23.578948 0,8.046784 5.4269,15.251462 14.6901,19.836258 9.1696,4.584795 17.4035,7.111107 17.4035,12.725147 0,7.20468 -7.2983,7.57895 -11.1345,7.57895 -8.6082,0 -18.9006,-8.70176 -18.9006,-8.70176 l -8.7953,14.78363 c 0,0 10.9473,10.19883 29.0058,10.19883 15.0643,0 29.0994,-6.45614 29.0994,-24.88889 0,-10.105264 -9.4503,-17.40351 -18.0585,-21.052632 -8.7953,-3.742691 -16.0935,-6.83041 -16.0935,-11.134504 0,-4.210526 3.1813,-6.923976 9.1696,-6.923976 7.9532,0 15.6257,5.333333 15.6257,5.333333 l 7.1111,-14.035088 c 0,0 -9.9181,-7.298246 -23.9532,-7.298246 z"/>
	</g>
	<g aria-label="JOSEPH CONRAD">
		<path d="m 384.91612,232.10526 h -13.19298 v 38.17544 c 0,5.82456 -2.87719,8.14035 -6.66667,8.14035 -3.36842,0 -7.50877,-3.92982 -7.50877,-3.92982 l -4.21053,11.01754 c 0,0 5.26316,5.54386 13.54386,5.54386 11.57895,0 18.03509,-6.03509 18.03509,-17.40351 z"/>
		<path d="m 395.02138,261.01754 c 0,16.91228 12.07018,30.03509 29.19299,30.03509 16.63158,0 29.1228,-13.12281 29.1228,-30.03509 0,-16.91228 -13.05263,-29.96491 -29.1228,-29.96491 -15.92983,0 -29.19299,13.05263 -29.19299,29.96491 z m 14.24562,0 c 0,-8.63157 4.77193,-17.26315 14.94737,-17.26315 10.24561,0 14.87719,8.63158 14.87719,17.26315 0,8.63158 -4.35088,17.26316 -14.87719,17.26316 -10.80702,0 -14.94737,-8.63158 -14.94737,-17.26316 z"/>
		<path d="m 485.49177,231.05263 c -9.33333,0 -18.87719,6.8772 -18.87719,17.68421 0,6.03509 4.07018,11.4386 11.01755,14.8772 6.87719,3.43859 13.05263,5.33333 13.05263,9.54385 0,5.40351 -5.47369,5.68422 -8.35088,5.68422 -6.45614,0 -14.17544,-6.52632 -14.17544,-6.52632 l -6.59649,11.08772 c 0,0 8.21053,7.64912 21.75439,7.64912 11.29824,0 21.82456,-4.8421 21.82456,-18.66666 0,-7.57895 -7.08772,-13.05264 -13.54386,-15.78948 -6.59649,-2.80702 -12.07018,-5.12281 -12.07018,-8.35088 0,-3.15789 2.38597,-5.19298 6.8772,-5.19298 5.96491,0 11.71929,4 11.71929,4 l 5.33334,-10.52631 c 0,0 -7.4386,-5.47369 -17.96492,-5.47369 z"/>
		<path d="m 549.43037,232.10526 h -33.1228 V 290 h 33.1228 v -11.57895 h -19.92982 v -11.64912 h 19.08772 v -11.57895 h -19.08772 v -11.50877 h 19.92982 z"/>
		<path d="M 562.01481,232.10526 V 290 h 13.19298 v -21.47368 h 7.92983 c 11.29824,0 19.78947,-6.66667 19.78947,-18.5965 0,-11.99999 -8.49123,-17.82456 -19.78947,-17.82456 z M 575.20779,258 v -15.36842 h 3.7193 c 5.19298,0 10.10526,1.75439 10.10526,7.7193 0,5.89473 -4.91228,7.64912 -10.10526,7.64912 z"/>
		<path d="m 626.94572,266.77193 h 18.66667 V 290 h 13.19298 v -57.89474 h -13.19298 v 23.08772 H 626.94572 V 232.10526 H 613.75274 V 290 h 13.19298 z"/>
		<path d="m 725.00931,278.07018 c -13.26316,0 -19.08772,-9.26316 -19.08772,-17.05264 0,-7.71929 5.82456,-16.98245 19.08772,-16.98245 6.73684,0 11.36842,3.57895 11.36842,3.57895 l 5.61404,-11.22807 c 0,0 -6.45614,-5.33334 -19.01755,-5.33334 -16.42105,0 -31.36842,13.47369 -31.36842,30.10527 0,16.5614 15.01755,29.89473 31.36842,29.89473 12.56141,0 19.01755,-5.33333 19.01755,-5.33333 l -5.61404,-11.22807 c 0,0 -4.63158,3.57895 -11.36842,3.57895 z"/>
		<path d="m 749.5115,261.01754 c 0,16.91228 12.07018,30.03509 29.19299,30.03509 16.63158,0 29.1228,-13.12281 29.1228,-30.03509 0,-16.91228 -13.05263,-29.96491 -29.1228,-29.96491 -15.92983,0 -29.19299,13.05263 -29.19299,29.96491 z m 14.24562,0 c 0,-8.63157 4.77193,-17.26315 14.94737,-17.26315 10.24561,0 14.87719,8.63158 14.87719,17.26315 0,8.63158 -4.35088,17.26316 -14.87719,17.26316 -10.80702,0 -14.94737,-8.63158 -14.94737,-17.26316 z"/>
		<path d="m 831.84157,254.07018 h 0.14035 L 854.99946,290 h 13.19298 v -57.89474 h -13.19298 v 35.92983 h -0.14035 L 831.84157,232.10526 H 818.64858 V 290 h 13.19299 z"/>
		<path d="M 881.62554,232.10526 V 290 h 13.19299 V 267.12281 L 912.50274,290 h 16.77193 l -19.92983,-23.92982 c 7.08772,-2.24562 11.85965,-8.07018 11.85965,-16.77193 0,-11.36842 -8.14035,-17.19299 -18.87719,-17.19299 z m 13.19299,25.68421 v -15.15789 h 1.54386 c 4.98245,0 10.94736,0.35088 10.94736,7.57895 0,7.22807 -5.96491,7.57894 -10.94736,7.57894 z"/>
		<path d="M 966.33057,232.10526 H 954.12004 L 930.75162,290 h 14.17544 l 4.2807,-11.57895 h 22.03509 L 975.52355,290 h 14.17544 z m 0.42105,34.73685 H 953.69899 L 960.15513,250 h 0.14035 z"/>
		<path d="M 996.88873,232.10526 V 290 h 16.77197 c 15.9298,0 29.1929,-12.07018 29.1929,-28.98246 0,-16.8421 -13.3333,-28.91228 -29.1929,-28.91228 z m 13.19297,46.10527 v -34.31579 h 2.0351 c 9.8246,0 16.4912,7.50877 16.4912,17.19298 -0.07,9.68421 -6.7368,17.12281 -16.4912,17.12281 z"/>
	</g>
</svg>
